X: 191
T: 7. La Neuvenne
T: la Neuvaine
B: Robert Landrin "Potpourri fran\,cois des contre-danse ancienne tel quil se danse chez la Reine ..." 1760 p.19 #1 dance 6 #7
S: http://memory.loc.gov/cgi-bin/query/D?musdibib:2:./temp/~ammem_EbRS:
Z: 2014 John Chambers <jc:trillian.mit.edu>
M: 6/8
L: 1/8
K: G
% - - - - - - - - - - - - - - - - - - - - - - - - -
!segno!B2B |\
A2G c2c | B2A d2d | dcB AGA | B2G B2B |\
A2G c2c | B2A d2d | dcB AGF | HG3 |]
[| "2.f. enrondeau"d2d |\
gBc d2d | gBc d2d | g2f e2d | c2A f2f |\
fed g2g | gfe a2a | agf ed^c | d3 !segno!y|]
% - - - - - - - - - - - - - - - - - - - - - - - - -

%%sep 1 1 500
%%sep 1 1 500
